svgs/sharp-light/coffin-cross.svg

<svg xmlns="http://www.w3.org/2000/svg" viewBox="0 0 384 512"><!--! Font Awesome Pro 6.6.0 by @fontawesome - https://fontawesome.com License - https://fontawesome.com/license (Commercial License) Copyright 2024 Fonticons, Inc. --><path d="M35.2 150.9L127.7 32l128.7 0 92.5 118.9L255.8 480l-127.6 0-93-329.1zM104 512l176 0L384 144 272 0 112 0 0 144 104 512zM208 112l0-16-32 0 0 16 0 64-64 0-16 0 0 32 16 0 64 0 0 128 0 16 32 0 0-16 0-128 64 0 16 0 0-32-16 0-64 0 0-64z"/></svg>

<svg xmlns="http://www.w3.org/2000/svg" viewBox="0 0 384 512"><!--! Font Awesome Pro 6.4.0 by @fontawesome - https://fontawesome.com License - https://fontawesome.com/license (Commercial License) Copyright 2023 Fonticons, Inc. --><path d="M35.2 150.9L127.7 32H256.3l92.5 118.9L255.8 480H128.2l-93-329.1zM104 512H280L384 144 272 0H112L0 144 104 512zM208 112V96H176v16 64H112 96v32h16 64V336v16h32V336 208h64 16V176H272 208V112z"/></svg>
